layout/main/dist/assets/main/img/head/laravel.svg

<svg width="80" height="83" viewBox="0 0 80 83" fill="none" xmlns="http://www.w3.org/2000/svg">
<g clip-path="url(#clip0)">
<path d="M79.9549 18.6313C79.9846 18.741 80 18.8542 80 18.968V36.6455C80 37.1073 79.7529 37.5339 79.3523 37.7636L64.5152 46.306V63.2375C64.5152 63.6983 64.2704 64.1237 63.8708 64.3557L32.8997 82.1846C32.8288 82.2249 32.7514 82.2507 32.6741 82.2781C32.6451 82.2878 32.6177 82.3055 32.5871 82.3135C32.3706 82.3705 32.143 82.3705 31.9265 82.3135C31.8911 82.3039 31.8589 82.2845 31.825 82.2716C31.7541 82.2459 31.68 82.2233 31.6124 82.1846L0.647682 64.3557C0.247304 64.1257 0 63.6993 0 63.2375V10.2049C0 10.0889 0.0161115 9.97616 0.0451122 9.8666C0.0547791 9.82954 0.0773352 9.79571 0.0902244 9.75865C0.114392 9.69098 0.136948 9.62171 0.172393 9.55887C0.19656 9.51698 0.232005 9.48315 0.261006 9.44448C0.298063 9.39292 0.331897 9.33975 0.375398 9.29464C0.412454 9.25758 0.460789 9.2302 0.502679 9.19797C0.549402 9.1593 0.591292 9.11741 0.64446 9.0868H0.646071L16.1292 0.172315C16.5282 -0.0572655 17.0192 -0.0572655 17.4181 0.172315L32.9013 9.0868H32.9045C32.9561 9.11903 32.9996 9.1593 33.0463 9.19636C33.0882 9.22858 33.1349 9.25758 33.172 9.29303C33.2171 9.33975 33.2493 9.39292 33.288 9.44448C33.3153 9.48315 33.3524 9.51698 33.375 9.55887C33.412 9.62332 33.433 9.69098 33.4587 9.75865C33.4716 9.79571 33.4942 9.82954 33.5038 9.86821C33.5335 9.978 33.5487 10.0912 33.549 10.2049V43.3286L46.451 35.8995V18.9664C46.451 18.8536 46.4672 18.7392 46.4962 18.6313C46.5074 18.5926 46.5284 18.5587 46.5413 18.5217C46.567 18.454 46.5896 18.3847 46.625 18.3219C46.6492 18.28 46.6847 18.2462 46.712 18.2075C46.7507 18.156 46.7829 18.1028 46.828 18.0577C46.8651 18.0206 46.9118 17.9932 46.9537 17.961C47.0021 17.9223 47.0439 17.8805 47.0955 17.8498H47.0971L62.5819 8.93536C62.9808 8.70544 63.4719 8.70544 63.8708 8.93536L79.3539 17.8498C79.4087 17.8821 79.4506 17.9223 79.4989 17.9594C79.5392 17.9916 79.5859 18.0206 79.623 18.0561C79.6681 18.1028 79.7003 18.156 79.739 18.2075C79.768 18.2462 79.8034 18.28 79.826 18.3219C79.8631 18.3847 79.884 18.454 79.9098 18.5217C79.9243 18.5587 79.9452 18.5926 79.9549 18.6313ZM77.4189 35.8995V21.1994L72.0006 24.3186L64.5152 28.6284V43.3286L77.4205 35.8995H77.4189ZM61.9358 62.4916V47.7818L54.5728 51.9869L33.5473 63.9867V78.8351L61.9358 62.4916ZM2.58106 12.4364V62.4916L30.9663 78.8335V63.9883L16.1373 55.5958L16.1324 55.5926L16.126 55.5894C16.076 55.5604 16.0342 55.5185 15.9874 55.4831C15.9472 55.4508 15.9004 55.4251 15.865 55.3896L15.8618 55.3848C15.8199 55.3445 15.7909 55.2946 15.7554 55.2495C15.7232 55.2059 15.6845 55.1689 15.6588 55.1238L15.6571 55.1189C15.6281 55.0706 15.6104 55.0126 15.5895 54.9578C15.5685 54.9095 15.5411 54.8644 15.5283 54.8128V54.8112C15.5121 54.75 15.5089 54.6855 15.5025 54.6227C15.496 54.5744 15.4831 54.526 15.4831 54.4777V54.4745V19.8654L7.99936 15.554L2.58106 12.438V12.4364ZM16.7753 2.77915L3.87481 10.2049L16.7721 17.6307L29.6709 10.2033L16.7721 2.77915H16.7753ZM23.4841 49.1222L30.9679 44.814V12.4364L25.5496 15.5556L18.0642 19.8654V52.243L23.4841 49.1222ZM63.2263 11.5422L50.3275 18.968L63.2263 26.3938L76.1236 18.9664L63.2263 11.5422ZM61.9358 28.6284L54.4504 24.3186L49.0321 21.1994V35.8995L56.5159 40.2078L61.9358 43.3286V28.6284ZM32.2552 61.7553L51.1749 50.9541L60.6324 45.5568L47.7432 38.1358L32.9029 46.6797L19.3773 54.4664L32.2552 61.7553Z" fill="#FF2D20"/>
</g>
<defs>
<clipPath id="clip0">
<rect width="80" height="82.5" fill="white"/>
</clipPath>
</defs>
</svg>

<svg width="80" height="83" viewBox="0 0 80 83" fill="none" xmlns="http://www.w3.org/2000/svg"><g clip-path="url(#clip0)"><path d="M79.955 18.631c.03.11.045.223.045.337v17.677c0 .462-.247.889-.648 1.119l-14.837 8.542v16.931c0 .461-.245.887-.644 1.119L32.9 82.185c-.071.04-.149.066-.226.093-.029.01-.056.027-.087.035a1.297 1.297 0 01-.66 0c-.036-.01-.068-.029-.102-.041-.07-.026-.145-.049-.213-.087L.648 64.355A1.29 1.29 0 010 63.238V10.206c0-.116.016-.229.045-.338.01-.037.032-.071.045-.108.024-.068.047-.137.082-.2.025-.042.06-.076.089-.115.037-.051.07-.104.114-.15.037-.036.086-.064.128-.096.046-.039.088-.08.141-.111h.002L16.13.172c.4-.23.89-.23 1.29 0L32.9 9.087h.003c.052.032.096.072.142.11.042.032.089.06.126.096.045.047.077.1.116.151.027.04.064.073.087.115.037.064.058.132.084.2.013.037.035.07.045.11.03.109.045.222.045.336v33.124l12.902-7.43V18.967c0-.112.016-.227.045-.335.011-.038.032-.072.045-.11.026-.067.049-.136.084-.2.024-.041.06-.075.087-.114.039-.051.07-.104.116-.15.037-.036.084-.064.126-.096.048-.039.09-.08.142-.111h.001l15.485-8.915c.399-.23.89-.23 1.289 0l15.483 8.915c.055.032.097.072.145.11.04.032.087.06.124.096.045.047.077.1.116.151.029.04.064.073.087.115.037.063.058.132.084.2.014.037.035.07.045.11zM77.419 35.9V21.2L72 24.318l-7.486 4.31v14.7l12.906-7.43h-.002zM61.936 62.492v-14.71l-7.363 4.205-21.026 12v14.848l28.389-16.343zM2.58 12.436v50.056l28.385 16.342V63.987l-14.829-8.392-.005-.003-.006-.004c-.05-.029-.092-.07-.139-.106-.04-.032-.087-.058-.122-.093l-.003-.005c-.042-.04-.071-.09-.107-.136-.032-.043-.07-.08-.096-.125l-.002-.005c-.029-.048-.047-.106-.068-.161-.02-.048-.048-.094-.06-.145v-.002c-.017-.061-.02-.126-.027-.188-.006-.049-.019-.097-.019-.145V19.865L8 15.554l-5.418-3.116v-.002zM16.775 2.78l-12.9 7.426 12.897 7.426 12.899-7.428L16.772 2.78h.003zm6.71 46.343l7.483-4.308V12.436l-5.418 3.12-7.486 4.31v32.377l5.42-3.12zm39.741-37.58l-12.898 7.426 12.898 7.426 12.898-7.428-12.898-7.424zm-1.29 17.086l-7.486-4.31-5.418-3.119v14.7l7.484 4.309 5.42 3.12v-14.7zm-29.68 33.127l18.919-10.8 9.457-5.398-12.889-7.421-14.84 8.544-13.526 7.786 12.878 7.29z" fill="#FF2D20"/></g><defs><clipPath id="clip0"><path fill="#fff" d="M0 0h80v82.5H0z"/></clipPath></defs></svg>
